src/assets/icon/navbar_elements4.svg

<svg width="24" height="24" viewBox="0 0 24 24" fill="none" xmlns="http://www.w3.org/2000/svg">
<mask id="mask0_253_4748" style="mask-type:alpha" maskUnits="userSpaceOnUse" x="0" y="0" width="24" height="24">
<rect width="24" height="24" fill="#D9D9D9"/>
</mask>
<g mask="url(#mask0_253_4748)">
<path d="M12 11.6924C11.0375 11.6924 10.2136 11.3497 9.52825 10.6644C8.84275 9.97888 8.5 9.15488 8.5 8.19238C8.5 7.22988 8.84275 6.40597 9.52825 5.72063C10.2136 5.03513 11.0375 4.69238 12 4.69238C12.9625 4.69238 13.7864 5.03513 14.4718 5.72063C15.1573 6.40597 15.5 7.22988 15.5 8.19238C15.5 9.15488 15.1573 9.97888 14.4718 10.6644C13.7864 11.3497 12.9625 11.6924 12 11.6924ZM4.5 17.7886V17.0846C4.5 16.595 4.633 16.1415 4.899 15.7241C5.165 15.3068 5.5205 14.986 5.9655 14.7616C6.95383 14.2771 7.95092 13.9137 8.95675 13.6714C9.96258 13.429 10.977 13.3079 12 13.3079C13.023 13.3079 14.0374 13.429 15.0433 13.6714C16.0491 13.9137 17.0462 14.2771 18.0345 14.7616C18.4795 14.986 18.835 15.3068 19.101 15.7241C19.367 16.1415 19.5 16.595 19.5 17.0846V17.7886C19.5 18.2103 19.3523 18.569 19.0568 18.8646C18.7613 19.1601 18.4026 19.3079 17.9808 19.3079H6.01925C5.59742 19.3079 5.23875 19.1601 4.94325 18.8646C4.64775 18.569 4.5 18.2103 4.5 17.7886ZM6 17.8079H18V17.0846C18 16.8821 17.9413 16.6946 17.824 16.5221C17.7067 16.3498 17.5474 16.2091 17.3462 16.1001C16.4846 15.6758 15.6061 15.3543 14.7107 15.1356C13.8152 14.9171 12.9117 14.8079 12 14.8079C11.0883 14.8079 10.1848 14.9171 9.28925 15.1356C8.39392 15.3543 7.51542 15.6758 6.65375 16.1001C6.45258 16.2091 6.29333 16.3498 6.176 16.5221C6.05867 16.6946 6 16.8821 6 17.0846V17.8079ZM12 10.1924C12.55 10.1924 13.0208 9.99655 13.4125 9.60488C13.8042 9.21322 14 8.74238 14 8.19238C14 7.64238 13.8042 7.17155 13.4125 6.77988C13.0208 6.38822 12.55 6.19238 12 6.19238C11.45 6.19238 10.9792 6.38822 10.5875 6.77988C10.1958 7.17155 10 7.64238 10 8.19238C10 8.74238 10.1958 9.21322 10.5875 9.60488C10.9792 9.99655 11.45 10.1924 12 10.1924Z" fill="black"/>
</g>
</svg>

<svg xmlns="http://www.w3.org/2000/svg" width="24" height="24" fill="none" xmlns:v="https://vecta.io/nano"><mask id="A" maskUnits="userSpaceOnUse" x="0" y="0" width="24" height="24" mask-type="alpha"><path fill="#d9d9d9" d="M0 0h24v24H0z"/></mask><g mask="url(#A)"><path d="M12 11.692a3.37 3.37 0 0 1-2.472-1.028A3.37 3.37 0 0 1 8.5 8.192c0-.963.343-1.786 1.028-2.472S11.038 4.692 12 4.692s1.786.343 2.472 1.028S15.5 7.23 15.5 8.192a3.37 3.37 0 0 1-1.028 2.472A3.37 3.37 0 0 1 12 11.692zm-7.5 6.096v-.704c0-.49.133-.943.399-1.36s.622-.738 1.066-.963c.988-.484 1.985-.848 2.991-1.09s2.02-.364 3.043-.364 2.037.121 3.043.364 2.003.606 2.991 1.09c.445.224.8.545 1.066.963s.399.871.399 1.36v.704c0 .422-.148.78-.443 1.076s-.654.443-1.076.443H6.019c-.422 0-.781-.148-1.076-.443S4.5 18.21 4.5 17.789zm1.5.019h12v-.723a.98.98 0 0 0-.176-.562c-.117-.172-.277-.313-.478-.422-.862-.424-1.74-.746-2.636-.965s-1.799-.328-2.711-.328-1.815.109-2.711.328-1.774.54-2.635.965c-.201.109-.36.25-.478.422a.98.98 0 0 0-.176.563v.723zm6-7.616c.55 0 1.021-.196 1.412-.588S14 8.742 14 8.192s-.196-1.021-.588-1.412-.862-.588-1.412-.588-1.021.196-1.412.588S10 7.642 10 8.192s.196 1.021.588 1.412.862.588 1.412.588z" fill="#000"/></g></svg>
